X:1
T:Hopa Horunu
O:Turkish
M:7/8
L:1/4
Q:200
K:C
P:instrumental
Aee3/|Aee3/|dced/|cB/A/BA/:|
|:B/c/dd3/|dB/c/de/|d/B/c/d/ed/|cB/A/BA/:|
P:vocal
eee3/|eee3/|dced/|cc/B/B3/:|
|:B/c/dd3/|dB/c/de/|d2/B/c/ ed/|cc/B/B3/:|
